X:1
T:Title
%%score { 1 | 2 }
L:1/8
M:6/8
K:D
V:1 treble nm="Grand Piano"
V:2 bass 
V:1
 z3 z2[Q:1/4=95] [DF] | [FA][FA][FA] [FA]2 [FA] | [GB] [Bd]2- [Bd]2 [GB] | %3
 [FA][FA][FA] [FA]2 [DF] |[M:5/8] [CE]-[CE]- [CE]3 |[M:1/8] [GA] | %6
[M:3/4] [FA][FA] [FA] [FA]2 [FA] | [GB][Bd]- [Bd]3 B | AA A B2 c |[M:5/8] [Fd]-[Fd]- [Fd]3 | %10
[M:1/8] [FA] |[M:3/4] [Fd][Fd] [Fd][FA] [FA][FA] | BB B [FA]3 | EE F G3 |[M:5/8] FF[EG] [FA]2 | %15
[M:1/8] [FA] |[M:3/4] [Fd][Fd] [Fd][FA] [FA][FA] | BB B [FA]2 [FA] | BB Bc B[Gc] | %19
[M:5/8] [Fd]-[Fd]- [Fd]3 |] %20
V:2
 z3 z2 [D,A,] | [D,D][D,D][D,D] [D,D]2 [D,D] | [G,D] [G,D]2- [G,D]2 [G,D] | %3
 [D,D][D,D][D,D] [D,D]2 [D,A,] |[M:5/8] [A,,A,]-[A,,A,]- [A,,A,]3 |[M:1/8] [A,C] | %6
[M:3/4] [D,D][D,D] [D,D] [D,D]2 [D,D] | [G,D][G,D]- [G,D]3 [G,DG] | %8
 [A,DF][A,DF] [A,DF] [A,CG]2 [A,G] |[M:5/8][K:bass] [D,A,]-[D,A,]- [D,A,]3 |[M:1/8] [D,A,] | %11
[M:3/4] [D,A,][D,A,] [D,A,][D,D] [D,D][D,D] | [G,DG][G,DG] [G,DG][K:bass] [D,D]3 | %13
 [A,C][A,C] [A,D] [A,E]3 |[M:5/8] [D,A,D][D,A,D][D,A,] [D,A,]2 |[M:1/8] [D,A,] | %16
[M:3/4] [D,A,][D,A,] [D,A,][D,D] [D,D][D,D] | [G,DG][G,DG] [G,DG][K:bass] [D,D]2 [D,D] | %18
 [G,DG][G,DG] [G,DG][A,E] [A,G][K:bass][A,,A,] |[M:5/8] [D,A,]-[D,A,]- [D,A,]3 |] %20

